X: 139
T: Nova Scotia Song, The
M:4/4
R:song
L:1/8
Z:added by Alf warnock alf0@rogers.com - www.alfwarnock.info/alfs
K:F
E2|"F"F3F F2G2|F4 A,2B,2|C4 C2D2|C4 F2E2|
"Dm"D6E2|F6G2|A4 D2C2|D8-|D4 F2G2|"F"A4 A2A2|"C7"G4 E2D2|C4 E2F2|
G4 F2G2|"Dm"A2G2 F2E2|D2E2 D2C2|A,4 D2C2|D8-|D8|]


